X: 7969
T: Congress, The
R: reel
M: 4/4
K: Adorian
|:eAAG A2Bd|eaaf gedg|e~A3 e~A3|B~G3 Bddg|
e~A3 A2Bd|eaaf gedB|cBcd eged|cABG A2(3Bcd:|
|:eaag ~a3g|eaag egdg|egdg egdg|eaaf gedg|
e~a3 a2ag|eaaf gedB|cBcd eged|cABG A2(3Bcd:|

